src/assets/logos/infact_logo_gradient.svg

<svg height="60" viewBox="0 0 152 60" width="152" xmlns="http://www.w3.org/2000/svg" xmlns:xlink="http://www.w3.org/1999/xlink"><linearGradient id="a" x1="50%" x2="50%" y1="0%" y2="100%"><stop offset="0" stop-color="#009cf3"/><stop offset="1" stop-color="#16d6d9"/></linearGradient><g style="stroke-width:2;stroke:url(#a);fill:none;fill-rule:evenodd;stroke-linecap:round;stroke-linejoin:round" transform="translate(1 1)"><g transform="translate(95.793651)"><path d="m23.8650794 48.4920635c-1.484127.7460317-3.0952381 1.1111111-4.8253969 1.1111111-6.015873 0-10.89682536-4.8809524-10.89682536-10.8968254s4.88095236-10.5793651 10.89682536-10.5793651c3.7619048 0 7.0793651 1.6111111 9.0396826 4.5079365"/><path d="m47.3888889 57.4206349v-28.6309524h6.7777778v-8.5198412h-6.7777778v-20.19841273h-8.984127v20.18253973h-3.5238095l-.0952381 8.1507936c-3.4206349-5.047619-9.1587302-8.3730159-15.7460318-8.3730159-10.47619044 0-18.99206345 8.1746032-18.99206345 18.6507937s8.51587301 18.8253968 18.99206345 18.8253968l19.3650794-.0873016v-28.8412698l-.1269841-.1507937h-3.3968254"/></g><path d="m90.412745 20.7142857.2221756 36.515904-20.2259185.0713976c-5.1973231 0-9.3869209-.8726373-12.7750995-4.4583832-3.3723089-3.6333444-4.8561248-8.2186567-4.8561248-13.6607401 0-5.3468867 1.4362068-9.7735377 4.895799-13.3672167 3.2691559-3.593679 7.4270144-5.0771624 10.148666-5.0771624zm-7.3317963 7.8220033-11.8149834.0555315c-2.9676318 0-5.3242806.7933066-7.2762523 2.87177-1.9837111 2.0784634-2.9200228 4.7043083-2.9200228 7.7982041 0 3.1652935.9918556 5.8149376 2.9676318 7.9172002 1.9837112 2.1022625 4.3086206 3.1414942 7.3556009 3.1414942h11.6880258z"/><path d="m40.7936508 28.5753968h42.2619048v12.6150794 8.9285714m7.3809523 7v-36.5238095h-48.7698412v-11.80158731l20.7936508-.15079365v-8.46031746l-29.7142858-.15079365v57.08730157"/><path d="m32.7380952 37.1904762c0-3.515873-.4206349-5.6190476-1.4126984-6.984127-1-1.4206349-2.9523809-1.7380952-5.4444444-1.7936508h-8.1746032l.0002986.1807981-.0241081 28.7557098h-8.71428573v-36.7777777l19.26190473-.0952381c4.3571429 0 7.6746032 1.2380952 10.1507937 3.8888889 2.1111111 2.2301587 3.0238095 5.8492063 3.0238095 10.8968254v22.0873015h-8.5873016l-.0793651-.1510308z"/><path d="m0 57.3412698h8.88888889v-57.10317456h-8.88888889z"/></g></svg>

<?xml version="1.0" encoding="UTF-8"?>
<svg width="152px" height="60px" viewBox="0 0 152 60" version="1.1" xmlns="http://www.w3.org/2000/svg" xmlns:xlink="http://www.w3.org/1999/xlink">
    <!-- Generator: Sketch 50.2 (55047) - http://www.bohemiancoding.com/sketch -->
    <title>infact</title>
    <desc>Created with Sketch.</desc>
    <defs>
        <linearGradient x1="50%" y1="0%" x2="50%" y2="100%" id="linearGradient-1">
            <stop stop-color="#009CF3" offset="0%"></stop>
            <stop stop-color="#16D6D9" offset="100%"></stop>
        </linearGradient>
    </defs>
    <g id="logo" stroke="none" stroke-width="1" fill="none" fill-rule="evenodd" stroke-linecap="round" stroke-linejoin="round">
        <g id="new" transform="translate(-676.000000, -1099.000000)" stroke="url(#linearGradient-1)" stroke-width="2">
            <g id="infact" transform="translate(677.000000, 1100.000000)">
                <g id="CT" transform="translate(95.793651, 0.000000)">
                    <path d="M23.8650794,48.4920635 C22.3809524,49.2380952 20.7698413,49.6031746 19.0396825,49.6031746 C13.0238095,49.6031746 8.14285714,44.7222222 8.14285714,38.7063492 C8.14285714,32.6904762 13.0238095,28.1269841 19.0396825,28.1269841 C22.8015873,28.1269841 26.1190476,29.7380952 28.0793651,32.6349206" id="C"></path>
                    <path d="M47.3888889,57.4206349 L47.3888889,28.7896825 L54.1666667,28.7896825 L54.1666667,20.2698413 L47.3888889,20.2698413 L47.3888889,0.0714285714 L38.4047619,0.0714285714 L38.4047619,20.2539683 L34.8809524,20.2539683 L34.7857143,28.4047619 C31.3650794,23.3571429 25.6269841,20.031746 19.0396825,20.031746 C8.56349206,20.031746 0.0476190476,28.2063492 0.0476190476,38.6825397 C0.0476190476,49.1587302 8.56349206,57.5079365 19.0396825,57.5079365 L38.4047619,57.4206349 L38.4047619,28.5793651 L38.2777778,28.4285714 L34.8809524,28.4285714"></path>
                </g>
                <path d="M90.412745,20.7142857 L90.6349206,57.2301897 L70.4090021,57.3015873 C65.211679,57.3015873 61.0220812,56.42895 57.6339026,52.8432041 C54.2615937,49.2098597 52.7777778,44.6245474 52.7777778,39.182464 C52.7777778,33.8355773 54.2139846,29.4089263 57.6735768,25.8152473 C60.9427327,22.2215683 65.1005912,20.7380849 67.8222428,20.7380849 L90.412745,20.7142857 Z M83.0809487,28.536289 L71.2659653,28.5918205 C68.2983335,28.5918205 65.9416847,29.3851271 63.989713,31.4635905 C62.0060019,33.5420539 61.0696902,36.1678988 61.0696902,39.2617946 C61.0696902,42.4270881 62.0615458,45.0767322 64.037322,47.1789948 C66.0210332,49.2812573 68.3459426,50.320489 71.3929229,50.320489 L83.0809487,50.320489 L83.0809487,28.536289 Z" id="A"></path>
                <path d="M40.7936508,28.5753968 L83.0555556,28.5753968 L83.0555556,41.1904762 L83.0555556,50.1190476 M90.4365079,57.1190476 L90.4365079,20.5952381 L41.6666667,20.5952381 L41.6666667,8.79365079 L62.4603175,8.64285714 L62.4603175,0.182539683 L32.7460317,0.0317460317 L32.7460317,57.1190476" id="F"></path>
                <path d="M32.7380952,37.1904762 C32.7380952,33.6746032 32.3174603,31.5714286 31.3253968,30.2063492 C30.3253968,28.7857143 28.3730159,28.468254 25.8809524,28.4126984 L17.7063492,28.4126984 L17.7066478,28.5934965 L17.6825397,57.3492063 L8.96825397,57.3492063 L8.96825397,20.5714286 L28.2301587,20.4761905 C32.5873016,20.4761905 35.9047619,21.7142857 38.3809524,24.3650794 C40.4920635,26.5952381 41.4047619,30.2142857 41.4047619,35.2619048 L41.4047619,57.3492063 L32.8174603,57.3492063 L32.7380952,57.1981755 L32.7380952,37.1904762 Z" id="N"></path>
                <polygon id="I" points="0 57.3412698 8.88888889 57.3412698 8.88888889 0.238095238 0 0.238095238"></polygon>
            </g>
        </g>
    </g>
</svg>
